X: 42909
T: Will You Come Home With Me?
R: jig
M: 6/8
K: Gmajor
Bc|:d2 g fdc|~B3 cAF|G3 ABA|GFG ABc|
d2 g fdc|B3 cAF|G3 ABA|GAG GBc:|
|:d2 B cBA|~B3 cAF|G3 ABA|GFG ABc|
d2 B cBA|BDB cAF|G3 ABA|GAG GBc:|

